X: 47
T: Morris Dance No. 1
N:Found by Jim Harding and Nick Barber in MS at C# House
S:"geoff" <brackenrigg@gmail.com> tradtunes 2011-9-9
F:http://www.youtube.com/watch?v=0SDZzKL_m5Q
M:4/4
L:1/8
K:G
B/c/ |: dedB/c/ dedB/c/|dgfe fedB/c/| dedB/c/ de.dz|d>e d/c/B/A/ GF G :|
A [| B2d2b2af|g2dB dccA|F2A2f3e|d2ecB2dc| B2d2b2af|g2dB dccA|F2A2f3e|d_dcA G3 |]


